X:1220
T: Tommy Gunn's
T: R\'il Thaim\'i Mhic Giolla Dhuinn
S: B.Breathnach:"Ceol Rince na hEireann" IV/151
Z: B.Black
L: 1/8
M: 4/4
R: reel
K: G
BA|GE (3EEE GEDE|GABd g2 fg|edBA GFGB|AGFE D2 BA|
GE (3EEE GEDE|GABd g2 fg|eBdB AGFE|DEFD E2 ||
gf|eB (3BBB eBfB|eB (3BBB g2 fe|dA (3AAA dAeA|\
dA (3AAA d2 gf|
eB (3BBB eBfB|eB (3BBB dega|bgaf gfed|Bee^d e2 ||
